X:1
T:Tell It All
T:Tell It All
T:Frank Marion Davis
T:T. E. Stephens, 1894
T:Public Domain Courtesy of the Cyber Hymnal™
C:Frank Marion Davis
Z:Public Domain
Z:Courtesy of the Cyber Hymnal™
%%score 1 ( 2 3 )
L:1/8
Q:1/4=92
M:3/4
K:Ab
V:1 treble 
V:2 bass 
V:3 bass 
V:1
 [CE]>[Fd] | [Ec]2 [DB]2 [B,D]>[B,D] | [DB]2 [CA]2 [CE]>[EA] | [EG]2 [DF]2 [B,D]>[DF] | %4
w: 1.~Art thou|wea- ry, worn and|la- den? Is thy|lot too hard to|
w: 2.~With thy|heart He’s well ac-|quaint- ed, Knows its|tri- als, griefs and|
w: 3.~Ah! He|feels thy deep- est|sor- row, Knows thy|frame, that thou art|
 [CE]4 [CE]>[Fd] | [Ec]2 [DB]2 [B,D]>[B,D] | [DB]2 [CA]2 [EG]>[DF] | [CE]2 [CA]2 [DB]>[DE] | %8
w: bear? Tell it|all to Christ, thy|Sav- ior; He thy|bur- dens all will|
w: fears; Knows its|yearn- ings, knows its|long- ings, All its|cries of an- guish|
w: dust; Tell Him|all thy grief and|trou- ble, He is|wor- thy of thy|
 [CA]4 ||"^Refrain" [CE]>[Fd] | [Ec]4 [DE]>[DB] | [CA]4 [CE]>[EA] | [EG]2 [DF]2 [EG]>[DF] | %13
w: share.|||||
w: hears.|Tell it|all, tell it|all, Tell it|all, yes, all to|
w: trust.|||||
 [DF]2 [CE]2 [CE]>[Fd] | [Ec]2 [DB]2 [B,D]>[B,D] | [DB]2 [CA]2 [EG]>[DF] | [CE]2 [CA]2 [DB]>[DE] | %17
w: ||||
w: Je- sus; Tell it|all to Christ, thy|Sav- ior; Tell it|all, yes, tell it|
w: ||||
 [CA]4 |] %18
w: |
w: all.|
w: |
V:2
 [A,,A,]>[A,,A,] | [A,,A,]2 [D,F,]2 [E,G,]>[E,G,] | E,2 [A,,E,]2 [C,A,]>[C,A,] | %3
w: ~ ~|~ ~ ~ ~|~ ~ ~ ~|
 [D,A,]2 [D,A,]2 [D,A,]>[D,A,] | [A,,A,]4 [A,,A,]>[A,,A,] | [A,,A,]2 [D,F,]2 [E,G,]>[E,G,] | %6
w: ~ ~ ~ ~|~ ~ ~|~ ~ ~ ~|
 [E,G,]2 [F,A,]2 [D,A,]>[D,A,] | [D,A,]2 E,2 [E,G,]>[E,G,] | [A,,A,]4 || z2 | %10
w: ~ ~ ~ ~|~ ~ ~ ~|~||
 [A,,A,]>[A,,A,] [A,,A,]2 z2 | [A,,E,]>[A,,E,] [A,,E,]2 [A,,A,]>[C,A,] | %12
w: Tell it all,|tell it all, * *|
 [D,A,]2 [D,A,]2 [D,A,]>[D,A,] | [A,,A,]2 [A,,A,]2 [A,,A,]>[A,,A,] | %14
w: ||
 [A,,A,]2 [D,F,]2 [E,G,]>[E,G,] | [E,G,]2 [F,A,]2 [D,A,]>[D,A,] | [E,A,]2 E,2 [E,G,]>[E,G,] | %17
w: |||
 [A,,A,]4 |] %18
w: |
V:3
 x2 | x6 | E,2 x4 | x6 | x6 | x6 | x6 | x2 E,2 x2 | x4 || x2 | x6 | x6 | x6 | x6 | x6 | x6 | %16
 x2 E,2 x2 | x4 |] %18

